static/img/showcase/sporran_dark.svg

<?xml version="1.0" encoding="UTF-8" standalone="no"?>
<!DOCTYPE svg PUBLIC "-//W3C//DTD SVG 1.1//EN" "http://www.w3.org/Graphics/SVG/1.1/DTD/svg11.dtd">
<svg width="100%" height="100%" viewBox="0 0 89 100" version="1.1" xmlns="http://www.w3.org/2000/svg" xmlns:xlink="http://www.w3.org/1999/xlink" xml:space="preserve" xmlns:serif="http://www.serif.com/" style="fill-rule:evenodd;clip-rule:evenodd;stroke-linejoin:round;stroke-miterlimit:2;">
    <g id="Artboard1" transform="matrix(1,0,0,1,-5.14585,3.55271e-15)">
        <rect x="5.146" y="-0" width="88.197" height="100" style="fill:none;"/>
        <clipPath id="_clip1">
            <rect x="5.146" y="-0" width="88.197" height="100"/>
        </clipPath>
        <g clip-path="url(#_clip1)">
            <g transform="matrix(1.42575,0,0,1.42575,-21.0166,-21.3452)">
                <path d="M50.08,31.73C51.19,31.734 52.112,32.621 52.16,33.73C59.35,33.45 66.394,31.607 72.8,28.33C68.218,20.095 59.504,14.971 50.08,14.971C40.656,14.971 31.942,20.095 27.36,28.33C33.764,31.614 40.808,33.464 48,33.75C48.037,32.634 48.963,31.735 50.08,31.73Z" style="fill:white;fill-rule:nonzero;"/>
            </g>
            <g transform="matrix(1.42575,0,0,1.42575,-21.0166,-21.3452)">
                <path d="M73.75,30.2C69.563,32.343 65.101,33.901 60.49,34.83L60.49,48.09C60.49,49.231 59.551,50.17 58.41,50.17C57.269,50.17 56.33,49.231 56.33,48.09L56.33,35.49C54.95,35.65 53.57,35.78 52.16,35.84L52.16,50.18C52.16,51.321 51.221,52.26 50.08,52.26C48.939,52.26 48,51.321 48,50.18L48,35.84C46.59,35.78 45.21,35.65 43.83,35.49L43.83,48.09C43.83,49.231 42.891,50.17 41.75,50.17C40.609,50.17 39.67,49.231 39.67,48.09L39.67,34.83C35.059,33.901 30.597,32.343 26.41,30.2C24.875,33.578 24.08,37.247 24.08,40.958C24.08,55.221 35.817,66.958 50.08,66.958C64.343,66.958 76.08,55.221 76.08,40.958C76.08,37.247 75.285,33.578 73.75,30.2Z" style="fill:white;fill-rule:nonzero;"/>
            </g>
            <g transform="matrix(1.42575,0,0,1.42575,-21.0166,-21.3452)">
                <path d="M21.54,85.1C20.945,85.119 20.352,85.014 19.8,84.79C19.394,84.631 19.026,84.389 18.72,84.08C18.526,83.912 18.395,83.683 18.35,83.43C18.353,83.355 18.377,83.282 18.42,83.22C18.456,83.155 18.503,83.098 18.56,83.05C18.604,83.01 18.661,82.986 18.72,82.98C18.82,82.98 18.91,83.05 19.02,83.18C19.149,83.349 19.29,83.509 19.44,83.66C19.656,83.865 19.911,84.025 20.19,84.13C20.597,84.277 21.028,84.344 21.46,84.33C21.934,84.343 22.406,84.251 22.84,84.06C23.208,83.893 23.511,83.608 23.7,83.25C23.911,82.843 24.015,82.388 24,81.93C24.021,81.465 23.918,81.002 23.7,80.59C23.515,80.263 23.254,79.986 22.94,79.78C22.626,79.572 22.291,79.397 21.94,79.26L20.8,78.86C20.433,78.723 20.081,78.549 19.75,78.34C19.427,78.129 19.162,77.84 18.98,77.5C18.763,77.073 18.66,76.598 18.68,76.12C18.662,75.627 18.772,75.138 19,74.7C19.197,74.352 19.475,74.057 19.81,73.84C20.134,73.633 20.493,73.488 20.87,73.41C21.225,73.332 21.587,73.291 21.95,73.29C22.265,73.286 22.58,73.313 22.89,73.37C23.174,73.418 23.455,73.485 23.73,73.57C23.948,73.628 24.154,73.723 24.34,73.85C24.463,73.918 24.545,74.041 24.56,74.18C24.563,74.25 24.545,74.319 24.51,74.38C24.48,74.449 24.439,74.513 24.39,74.57C24.336,74.62 24.264,74.649 24.19,74.65C24.053,74.63 23.923,74.579 23.81,74.5C23.589,74.37 23.354,74.266 23.11,74.19C22.352,73.97 21.548,73.97 20.79,74.19C20.43,74.299 20.107,74.507 19.86,74.79C19.591,75.145 19.459,75.586 19.49,76.03C19.472,76.419 19.577,76.804 19.79,77.13C19.987,77.414 20.252,77.644 20.56,77.8C20.88,77.974 21.215,78.122 21.56,78.24C21.94,78.36 22.31,78.51 22.7,78.67C23.056,78.83 23.392,79.031 23.7,79.27C24.026,79.541 24.286,79.883 24.46,80.27C24.677,80.764 24.78,81.301 24.76,81.84C24.787,82.483 24.642,83.122 24.34,83.69C24.073,84.155 23.667,84.526 23.18,84.75C22.664,84.981 22.105,85.101 21.54,85.1Z" style="fill:white;fill-rule:nonzero;"/>
            </g>
            <g transform="matrix(1.42575,0,0,1.42575,-21.0166,-21.3452)">
                <path d="M28,85C27.899,85.002 27.801,84.971 27.72,84.91C27.64,84.852 27.595,84.758 27.6,84.66L27.6,73.66C27.598,73.578 27.636,73.5 27.7,73.45C27.774,73.36 27.883,73.305 28,73.3L30.9,73.3C31.458,73.291 32.01,73.404 32.52,73.63C33.009,73.853 33.413,74.228 33.67,74.7C33.993,75.315 34.142,76.007 34.1,76.7L34.1,76.87C34.14,77.563 33.991,78.254 33.67,78.87C33.406,79.34 33,79.715 32.51,79.94C31.997,80.165 31.441,80.278 30.88,80.27L28.4,80.27L28.4,84.75C28.405,84.851 28.355,84.946 28.27,85C28.182,85.028 28.088,85.028 28,85ZM28.4,79.45L30.83,79.45C31.485,79.485 32.127,79.254 32.61,78.81C33.083,78.257 33.314,77.535 33.25,76.81L33.25,76.62C33.318,75.894 33.086,75.172 32.61,74.62C32.126,74.179 31.484,73.951 30.83,73.99L28.4,73.99L28.4,79.45Z" style="fill:white;fill-rule:nonzero;"/>
            </g>
            <g transform="matrix(1.42575,0,0,1.42575,-21.0166,-21.3452)">
                <path d="M39.81,85.1C39.249,85.104 38.693,84.988 38.18,84.76C37.684,84.541 37.271,84.169 37,83.7C36.686,83.082 36.541,82.392 36.58,81.7L36.58,76.6C36.541,75.908 36.686,75.218 37,74.6C37.263,74.135 37.666,73.765 38.15,73.54C38.663,73.312 39.219,73.196 39.78,73.2C40.348,73.195 40.91,73.311 41.43,73.54C41.917,73.764 42.323,74.135 42.59,74.6C42.904,75.218 43.049,75.908 43.01,76.6L43.01,81.7C43.049,82.392 42.904,83.082 42.59,83.7C42.323,84.165 41.917,84.536 41.43,84.76C40.92,84.985 40.368,85.101 39.81,85.1ZM39.81,84.33C40.464,84.369 41.106,84.141 41.59,83.7C42.074,83.152 42.31,82.428 42.24,81.7L42.24,76.6C42.314,75.874 42.082,75.149 41.6,74.6C40.563,73.762 39.067,73.762 38.03,74.6C37.554,75.152 37.322,75.874 37.39,76.6L37.39,81.7C37.322,82.426 37.554,83.148 38.03,83.7C38.514,84.141 39.156,84.369 39.81,84.33Z" style="fill:white;fill-rule:nonzero;"/>
            </g>
            <g transform="matrix(1.42575,0,0,1.42575,-21.0166,-21.3452)">
                <path d="M52.32,85C52.191,84.994 52.075,84.917 52.02,84.8L51.81,84.44L49.3,79.54L47.09,79.54L47.09,84.66C47.095,84.761 47.045,84.856 46.96,84.91C46.881,84.967 46.787,84.998 46.69,85C46.589,85.002 46.491,84.971 46.41,84.91C46.33,84.852 46.285,84.758 46.29,84.66L46.29,73.66C46.29,73.581 46.323,73.505 46.38,73.45C46.443,73.384 46.529,73.345 46.62,73.34L49.38,73.34C49.945,73.339 50.506,73.434 51.04,73.62C51.546,73.814 51.977,74.164 52.27,74.62C52.609,75.183 52.773,75.834 52.74,76.49C52.76,77.06 52.64,77.627 52.39,78.14C52.187,78.559 51.863,78.907 51.46,79.14C51.051,79.368 50.604,79.517 50.14,79.58L52.7,84.58C52.711,84.612 52.711,84.648 52.7,84.68C52.704,84.706 52.704,84.734 52.7,84.76C52.7,84.831 52.679,84.901 52.64,84.96C52.597,85.02 52.543,85.071 52.48,85.11C52.417,85.089 52.362,85.051 52.32,85ZM47.09,78.79L49.38,78.79C50.037,78.813 50.684,78.62 51.22,78.24C51.74,77.777 52.008,77.093 51.94,76.4C52.006,75.719 51.737,75.047 51.22,74.6C50.687,74.213 50.038,74.019 49.38,74.05L47.09,74.05L47.09,78.79Z" style="fill:white;fill-rule:nonzero;"/>
            </g>
            <g transform="matrix(1.42575,0,0,1.42575,-21.0166,-21.3452)">
                <path d="M61.41,85C61.281,84.994 61.165,84.917 61.11,84.8L60.9,84.44L58.38,79.52L56.18,79.52L56.18,84.64C56.181,84.74 56.132,84.834 56.05,84.89C55.971,84.947 55.877,84.978 55.78,84.98C55.679,84.982 55.581,84.951 55.5,84.89C55.42,84.832 55.375,84.738 55.38,84.64L55.38,73.64C55.38,73.563 55.409,73.488 55.46,73.43C55.528,73.366 55.617,73.327 55.71,73.32L58.46,73.32C59.029,73.318 59.593,73.412 60.13,73.6C60.636,73.794 61.067,74.144 61.36,74.6C61.696,75.164 61.856,75.815 61.82,76.47C61.844,77.04 61.727,77.606 61.48,78.12C61.277,78.539 60.953,78.887 60.55,79.12C60.141,79.348 59.694,79.497 59.23,79.56L61.79,84.56C61.796,84.593 61.796,84.627 61.79,84.66C61.794,84.686 61.794,84.714 61.79,84.74C61.79,84.811 61.769,84.881 61.73,84.94C61.684,84.998 61.63,85.048 61.57,85.09C61.51,85.075 61.454,85.044 61.41,85ZM56.18,78.79L58.46,78.79C59.12,78.815 59.771,78.622 60.31,78.24C60.814,77.777 61.07,77.101 61,76.42C61.07,75.741 60.805,75.068 60.29,74.62C59.754,74.232 59.101,74.038 58.44,74.07L56.18,74.07L56.18,78.79Z" style="fill:white;fill-rule:nonzero;"/>
            </g>
            <g transform="matrix(1.42575,0,0,1.42575,-21.0166,-21.3452)">
                <path d="M64,85C63.934,85.013 63.866,85.013 63.8,85C63.737,84.974 63.682,84.933 63.64,84.88C63.593,84.832 63.567,84.767 63.57,84.7C63.565,84.667 63.565,84.633 63.57,84.6L67,73.5C67.021,73.403 67.083,73.319 67.17,73.27C67.255,73.231 67.347,73.211 67.44,73.21C67.538,73.208 67.635,73.232 67.72,73.28C67.81,73.325 67.878,73.404 67.91,73.5L71.28,84.5C71.285,84.533 71.285,84.567 71.28,84.6C71.277,84.663 71.252,84.723 71.21,84.77C71.169,84.869 71.095,84.95 71,85C70.931,85.014 70.859,85.014 70.79,85C70.719,85.003 70.648,84.982 70.59,84.94C70.524,84.902 70.479,84.836 70.47,84.76L69.68,82.22L65.1,82.22L64.34,84.76C64.323,84.835 64.276,84.9 64.21,84.94C64.146,84.977 64.074,84.998 64,85ZM65.35,81.48L69.51,81.48L67.44,74.65L65.35,81.48Z" style="fill:white;fill-rule:nonzero;"/>
            </g>
            <g transform="matrix(1.42575,0,0,1.42575,-21.0166,-21.3452)">
                <path d="M74.13,85C74.029,85.002 73.931,84.971 73.85,84.91C73.77,84.852 73.725,84.758 73.73,84.66L73.73,73.66C73.717,73.558 73.764,73.456 73.85,73.4C73.934,73.347 74.031,73.319 74.13,73.32C74.227,73.324 74.32,73.363 74.39,73.43C74.473,73.504 74.547,73.588 74.61,73.68L74.77,73.98L79.41,83.12L79.41,73.62C79.408,73.525 79.453,73.436 79.53,73.38C79.614,73.327 79.711,73.299 79.81,73.3C79.905,73.303 79.998,73.331 80.08,73.38C80.161,73.433 80.209,73.523 80.21,73.62L80.21,84.62C80.211,84.72 80.162,84.814 80.08,84.87C80.001,84.927 79.907,84.958 79.81,84.96C79.671,84.952 79.544,84.878 79.47,84.76C79.383,84.635 79.303,84.504 79.23,84.37L74.53,75.15L74.53,84.62C74.531,84.72 74.482,84.814 74.4,84.87C74.326,84.941 74.232,84.987 74.13,85Z" style="fill:white;fill-rule:nonzero;"/>
            </g>
        </g>
    </g>
</svg>

<svg id="e7f8913b-6116-4fbc-a226-86e9493c3a18" data-name="Ebene 1" xmlns="http://www.w3.org/2000/svg" viewBox="0 0 100 100"><defs><style>.ee8baf5a-8c5f-46dd-b363-7dedd9a9d312{fill:#fff;}</style></defs><path class="ee8baf5a-8c5f-46dd-b363-7dedd9a9d312" d="M50.08,31.73a2.09,2.09,0,0,1,2.08,2A49.55,49.55,0,0,0,72.8,28.33a26,26,0,0,0-45.44,0A49.55,49.55,0,0,0,48,33.75,2.09,2.09,0,0,1,50.08,31.73Z"/><path class="ee8baf5a-8c5f-46dd-b363-7dedd9a9d312" d="M73.75,30.2a51.37,51.37,0,0,1-13.26,4.63V48.09a2.08,2.08,0,1,1-4.16,0V35.49c-1.38.16-2.76.29-4.17.35V50.18a2.08,2.08,0,0,1-4.16,0V35.84c-1.41-.06-2.79-.19-4.17-.35v12.6a2.08,2.08,0,1,1-4.16,0V34.83A51.37,51.37,0,0,1,26.41,30.2a26,26,0,1,0,47.34,0Z"/><path class="ee8baf5a-8c5f-46dd-b363-7dedd9a9d312" d="M21.54,85.1a4.27,4.27,0,0,1-1.74-.31,3.12,3.12,0,0,1-1.08-.71,1.12,1.12,0,0,1-.37-.65.4.4,0,0,1,.07-.21.61.61,0,0,1,.14-.17.28.28,0,0,1,.16-.07c.1,0,.19.07.3.2a4.92,4.92,0,0,0,.42.48,2.25,2.25,0,0,0,.75.47,3.41,3.41,0,0,0,1.27.2,3.2,3.2,0,0,0,1.38-.27,1.83,1.83,0,0,0,.86-.81,2.68,2.68,0,0,0,.3-1.32,2.61,2.61,0,0,0-.3-1.34,2.36,2.36,0,0,0-.76-.81,5.32,5.32,0,0,0-1-.52l-1.14-.4a5.71,5.71,0,0,1-1.05-.52,2.31,2.31,0,0,1-.77-.84,2.79,2.79,0,0,1-.3-1.38A2.85,2.85,0,0,1,19,74.7a2.48,2.48,0,0,1,.81-.86,3.16,3.16,0,0,1,1.06-.43,5.1,5.1,0,0,1,1.08-.12,4.84,4.84,0,0,1,.94.08,6.47,6.47,0,0,1,.84.2,2,2,0,0,1,.61.28.43.43,0,0,1,.22.33.37.37,0,0,1-.05.2.76.76,0,0,1-.12.19.3.3,0,0,1-.2.08.89.89,0,0,1-.38-.15,3.36,3.36,0,0,0-.7-.31,4.16,4.16,0,0,0-2.32,0,2,2,0,0,0-.93.6,1.84,1.84,0,0,0-.37,1.24,1.86,1.86,0,0,0,.3,1.1,2.09,2.09,0,0,0,.77.67,6.5,6.5,0,0,0,1,.44c.38.12.75.27,1.14.43a4.93,4.93,0,0,1,1,.6,2.78,2.78,0,0,1,.76,1,3.57,3.57,0,0,1,.3,1.57,3.62,3.62,0,0,1-.42,1.85,2.58,2.58,0,0,1-1.16,1.06A4,4,0,0,1,21.54,85.1Z"/><path class="ee8baf5a-8c5f-46dd-b363-7dedd9a9d312" d="M28,85a.45.45,0,0,1-.28-.09.29.29,0,0,1-.12-.25v-11a.26.26,0,0,1,.1-.21A.41.41,0,0,1,28,73.3h2.9a3.84,3.84,0,0,1,1.62.33,2.48,2.48,0,0,1,1.15,1.07,3.81,3.81,0,0,1,.43,2v.17a3.85,3.85,0,0,1-.43,2,2.55,2.55,0,0,1-1.16,1.07,3.92,3.92,0,0,1-1.63.33H28.4v4.48a.28.28,0,0,1-.13.25A.44.44,0,0,1,28,85Zm.4-5.55h2.43a2.44,2.44,0,0,0,1.78-.64,2.71,2.71,0,0,0,.64-2v-.19a2.68,2.68,0,0,0-.64-2,2.43,2.43,0,0,0-1.78-.63H28.4Z"/><path class="ee8baf5a-8c5f-46dd-b363-7dedd9a9d312" d="M39.81,85.1a3.93,3.93,0,0,1-1.63-.34A2.56,2.56,0,0,1,37,83.7a3.92,3.92,0,0,1-.42-2v-5.1a3.92,3.92,0,0,1,.42-2,2.56,2.56,0,0,1,1.15-1.06,3.93,3.93,0,0,1,1.63-.34,4,4,0,0,1,1.65.34,2.58,2.58,0,0,1,1.16,1.06,3.92,3.92,0,0,1,.42,2v5.1a3.92,3.92,0,0,1-.42,2,2.58,2.58,0,0,1-1.16,1.06A4,4,0,0,1,39.81,85.1Zm0-.77a2.43,2.43,0,0,0,1.78-.63,2.64,2.64,0,0,0,.65-2v-5.1a2.63,2.63,0,0,0-.64-2,2.84,2.84,0,0,0-3.57,0,2.68,2.68,0,0,0-.64,2v5.1a2.68,2.68,0,0,0,.64,2A2.43,2.43,0,0,0,39.81,84.33Z"/><path class="ee8baf5a-8c5f-46dd-b363-7dedd9a9d312" d="M52.32,85a.35.35,0,0,1-.3-.2l-.21-.36L49.3,79.54H47.09v5.12a.28.28,0,0,1-.13.25.48.48,0,0,1-.27.09.45.45,0,0,1-.28-.09.29.29,0,0,1-.12-.25v-11a.29.29,0,0,1,.09-.21.36.36,0,0,1,.24-.11h2.76a5,5,0,0,1,1.66.28,2.54,2.54,0,0,1,1.23,1,3.3,3.3,0,0,1,.47,1.87,3.48,3.48,0,0,1-.35,1.65,2.33,2.33,0,0,1-.93,1,3.74,3.74,0,0,1-1.32.44l2.56,5a.16.16,0,0,1,0,.1.25.25,0,0,1,0,.08.36.36,0,0,1-.06.2.57.57,0,0,1-.16.15A.35.35,0,0,1,52.32,85Zm-5.23-6.21h2.29a3,3,0,0,0,1.84-.55,2.18,2.18,0,0,0,.72-1.84,2.11,2.11,0,0,0-.72-1.8,2.9,2.9,0,0,0-1.84-.55H47.09Z"/><path class="ee8baf5a-8c5f-46dd-b363-7dedd9a9d312" d="M61.41,85a.35.35,0,0,1-.3-.2l-.21-.36-2.52-4.92h-2.2v5.12a.3.3,0,0,1-.13.25.48.48,0,0,1-.27.09.45.45,0,0,1-.28-.09.29.29,0,0,1-.12-.25v-11a.32.32,0,0,1,.08-.21.41.41,0,0,1,.25-.11h2.75a5,5,0,0,1,1.67.28,2.54,2.54,0,0,1,1.23,1,3.3,3.3,0,0,1,.46,1.87,3.48,3.48,0,0,1-.34,1.65,2.33,2.33,0,0,1-.93,1,3.74,3.74,0,0,1-1.32.44l2.56,5a.26.26,0,0,1,0,.1.25.25,0,0,1,0,.08.36.36,0,0,1-.06.2.75.75,0,0,1-.16.15A.35.35,0,0,1,61.41,85Zm-5.23-6.21h2.28a3,3,0,0,0,1.85-.55A2.17,2.17,0,0,0,61,76.42a2.1,2.1,0,0,0-.71-1.8,2.91,2.91,0,0,0-1.85-.55H56.18Z"/><path class="ee8baf5a-8c5f-46dd-b363-7dedd9a9d312" d="M64,85a.53.53,0,0,1-.2,0,.4.4,0,0,1-.16-.12.24.24,0,0,1-.07-.18.36.36,0,0,1,0-.1L67,73.5a.35.35,0,0,1,.17-.23.66.66,0,0,1,.27-.06.55.55,0,0,1,.28.07.38.38,0,0,1,.19.22l3.37,11a.36.36,0,0,1,0,.1.27.27,0,0,1-.07.17A.46.46,0,0,1,71,85a.54.54,0,0,1-.21,0,.32.32,0,0,1-.2-.06.24.24,0,0,1-.12-.18l-.79-2.54H65.1l-.76,2.54a.28.28,0,0,1-.13.18A.44.44,0,0,1,64,85Zm1.35-3.52h4.16l-2.07-6.83Z"/><path class="ee8baf5a-8c5f-46dd-b363-7dedd9a9d312" d="M74.13,85a.45.45,0,0,1-.28-.09.29.29,0,0,1-.12-.25v-11a.27.27,0,0,1,.12-.26.51.51,0,0,1,.28-.08.4.4,0,0,1,.26.11,1.36,1.36,0,0,1,.22.25l.16.3,4.64,9.14V73.62a.29.29,0,0,1,.12-.24.51.51,0,0,1,.28-.08.56.56,0,0,1,.27.08.29.29,0,0,1,.13.24v11a.3.3,0,0,1-.13.25.48.48,0,0,1-.27.09.43.43,0,0,1-.34-.2,4.11,4.11,0,0,1-.24-.39l-4.7-9.22v9.47a.3.3,0,0,1-.13.25A.48.48,0,0,1,74.13,85Z"/></svg>
